flaticon/office/desk-1.svg

<svg xmlns="http://www.w3.org/2000/svg" width="32" height="32" viewBox="0 0 24 24">
    <path d="M 23.601562 9.601562 L 22.078125 9.601562 L 22.105469 9.457031 L 22.960938 9.160156 C 23.160156 9.078125 23.28125 8.839844 23.199219 8.640625 C 23.121094 8.441406 22.878906 8.320312 22.679688 8.398438 L 22.253906 8.546875 L 22.398438 7.679688 C 22.441406 7.558594 22.398438 7.441406 22.320312 7.359375 C 22.238281 7.238281 22.121094 7.199219 22 7.199219 L 19.601562 7.199219 C 19.480469 7.199219 19.359375 7.28125 19.28125 7.359375 C 19.199219 7.441406 19.199219 7.558594 19.199219 7.679688 L 19.519531 9.601562 L 14.359375 9.601562 L 14.359375 9.320312 C 14.359375 8.800781 13.960938 8.398438 13.441406 8.398438 L 13.199219 8.398438 L 13.199219 8 L 17.199219 8 C 17.640625 8 18 7.640625 18 7.199219 L 18 0.800781 C 18 0.359375 17.640625 0 17.199219 0 L 6.800781 0 C 6.359375 0 6 0.359375 6 0.800781 L 6 7.199219 C 6 7.640625 6.359375 8 6.800781 8 L 10.800781 8 L 10.800781 8.398438 L 10.519531 8.398438 C 10 8.398438 9.601562 8.800781 9.601562 9.320312 L 9.601562 9.601562 L 4.761719 9.601562 L 4.761719 9.320312 C 4.761719 8.800781 4.359375 8.398438 3.839844 8.398438 L 3.199219 8.398438 L 3.199219 6.398438 L 4.800781 6.398438 C 4.921875 6.398438 5.039062 6.359375 5.121094 6.238281 C 5.199219 6.160156 5.238281 6.039062 5.199219 5.921875 L 4.398438 1.921875 C 4.359375 1.71875 4.199219 1.601562 4 1.601562 L 1.601562 1.601562 C 1.398438 1.601562 1.238281 1.71875 1.199219 1.921875 L 0.398438 5.921875 C 0.398438 6.039062 0.398438 6.160156 0.480469 6.238281 C 0.558594 6.359375 0.679688 6.398438 0.800781 6.398438 L 2.398438 6.398438 L 2.398438 8.398438 L 1.71875 8.398438 C 1.199219 8.398438 0.800781 8.800781 0.800781 9.320312 L 0.800781 9.601562 L 0.398438 9.601562 C 0.160156 9.601562 0 9.761719 0 10 L 0 11.601562 C 0 11.839844 0.160156 12 0.398438 12 L 0.800781 12 L 0.800781 23.601562 C 0.800781 23.839844 0.960938 24 1.199219 24 L 8.398438 24 C 8.640625 24 8.800781 23.839844 8.800781 23.601562 L 8.800781 12 L 15.199219 12 L 15.199219 23.601562 C 15.199219 23.839844 15.359375 24 15.601562 24 L 22.800781 24 C 23.039062 24 23.199219 23.839844 23.199219 23.601562 L 23.199219 12 L 23.601562 12 C 23.839844 12 24 11.839844 24 11.601562 L 24 10 C 24 9.761719 23.839844 9.601562 23.601562 9.601562 Z M 1.921875 2.398438 L 3.679688 2.398438 L 4.320312 5.601562 L 1.28125 5.601562 Z M 20.078125 8 L 21.519531 8 L 21.238281 9.601562 L 20.320312 9.601562 Z M 17.199219 0.800781 L 17.199219 5.601562 L 6.800781 5.601562 L 6.800781 0.800781 Z M 6.800781 6.398438 L 17.199219 6.398438 L 17.199219 7.199219 L 6.800781 7.199219 Z M 11.601562 8 L 12.398438 8 L 12.398438 8.398438 L 11.601562 8.398438 Z M 10.441406 9.320312 C 10.441406 9.238281 10.480469 9.199219 10.558594 9.199219 L 13.480469 9.199219 C 13.558594 9.199219 13.601562 9.238281 13.601562 9.320312 L 13.601562 9.601562 L 10.441406 9.601562 Z M 1.601562 9.320312 C 1.601562 9.238281 1.640625 9.199219 1.71875 9.199219 L 3.878906 9.199219 C 3.960938 9.199219 4 9.238281 4 9.320312 L 4 9.601562 L 1.601562 9.601562 Z M 8 23.199219 L 1.601562 23.199219 L 1.601562 12 L 8 12 Z M 22.398438 23.199219 L 16 23.199219 L 16 12 L 22.398438 12 Z M 23.199219 11.199219 L 0.800781 11.199219 L 0.800781 10.398438 L 23.199219 10.398438 Z M 23.199219 11.199219"/>
    <path d="M7.601562 2.800781C7.71875 2.800781 7.800781 2.761719 7.878906 2.679688L8.679688 1.878906C8.839844 1.71875 8.839844 1.480469 8.679688 1.320312 8.519531 1.160156 8.28125 1.160156 8.121094 1.320312L7.320312 2.121094C7.160156 2.28125 7.160156 2.519531 7.320312 2.679688 7.398438 2.761719 7.480469 2.800781 7.601562 2.800781zM7.71875 4.28125C7.800781 4.359375 7.878906 4.398438 8 4.398438 8.121094 4.398438 8.199219 4.359375 8.28125 4.28125L10.28125 2.28125C10.441406 2.121094 10.441406 1.878906 10.28125 1.71875 10.121094 1.558594 9.878906 1.558594 9.71875 1.71875L7.71875 3.71875C7.558594 3.878906 7.558594 4.121094 7.71875 4.28125zM2.398438 16.398438L7.199219 16.398438C7.441406 16.398438 7.601562 16.238281 7.601562 16L7.601562 12.800781C7.601562 12.558594 7.441406 12.398438 7.199219 12.398438L2.398438 12.398438C2.160156 12.398438 2 12.558594 2 12.800781L2 16C2 16.238281 2.160156 16.398438 2.398438 16.398438zM2.800781 13.199219L6.800781 13.199219 6.800781 15.601562 2.800781 15.601562zM2.398438 22.398438L7.199219 22.398438C7.441406 22.398438 7.601562 22.238281 7.601562 22L7.601562 17.601562C7.601562 17.359375 7.441406 17.199219 7.199219 17.199219L2.398438 17.199219C2.160156 17.199219 2 17.359375 2 17.601562L2 22C2 22.238281 2.160156 22.398438 2.398438 22.398438zM2.800781 18L6.800781 18 6.800781 21.601562 2.800781 21.601562zM2.800781 18"/>
    <path d="M5.199219 14L4.398438 14C4.160156 14 4 14.160156 4 14.398438 4 14.640625 4.160156 14.800781 4.398438 14.800781L5.199219 14.800781C5.441406 14.800781 5.601562 14.640625 5.601562 14.398438 5.601562 14.160156 5.441406 14 5.199219 14zM5.199219 18.800781L4.398438 18.800781C4.160156 18.800781 4 18.960938 4 19.199219 4 19.441406 4.160156 19.601562 4.398438 19.601562L5.199219 19.601562C5.441406 19.601562 5.601562 19.441406 5.601562 19.199219 5.601562 18.960938 5.441406 18.800781 5.199219 18.800781zM16.800781 16.398438L21.601562 16.398438C21.839844 16.398438 22 16.238281 22 16L22 12.800781C22 12.558594 21.839844 12.398438 21.601562 12.398438L16.800781 12.398438C16.558594 12.398438 16.398438 12.558594 16.398438 12.800781L16.398438 16C16.398438 16.238281 16.558594 16.398438 16.800781 16.398438zM17.199219 13.199219L21.199219 13.199219 21.199219 15.601562 17.199219 15.601562zM16.800781 22.398438L21.601562 22.398438C21.839844 22.398438 22 22.238281 22 22L22 17.601562C22 17.359375 21.839844 17.199219 21.601562 17.199219L16.800781 17.199219C16.558594 17.199219 16.398438 17.359375 16.398438 17.601562L16.398438 22C16.398438 22.238281 16.558594 22.398438 16.800781 22.398438zM17.199219 18L21.199219 18 21.199219 21.601562 17.199219 21.601562zM17.199219 18"/>
    <path d="M19.601562 14L18.800781 14C18.558594 14 18.398438 14.160156 18.398438 14.398438 18.398438 14.640625 18.558594 14.800781 18.800781 14.800781L19.601562 14.800781C19.839844 14.800781 20 14.640625 20 14.398438 20 14.160156 19.839844 14 19.601562 14zM19.601562 18.800781L18.800781 18.800781C18.558594 18.800781 18.398438 18.960938 18.398438 19.199219 18.398438 19.441406 18.558594 19.601562 18.800781 19.601562L19.601562 19.601562C19.839844 19.601562 20 19.441406 20 19.199219 20 18.960938 19.839844 18.800781 19.601562 18.800781zM19.601562 18.800781"/>
</svg>

<svg xmlns="http://www.w3.org/2000/svg" width="32" height="32" viewBox="0 0 24 24">
    <path d="M23.602 9.602h-1.524l.027-.145.856-.297c.2-.082.32-.32.238-.52-.078-.199-.32-.32-.52-.242l-.425.149.144-.867a.31.31 0 0 0-.078-.32.363.363 0 0 0-.32-.16h-2.398c-.122 0-.243.081-.32.16-.083.081-.083.199-.083.32l.32 1.922h-5.16V9.32a.906.906 0 0 0-.918-.922H13.2V8h4c.442 0 .801-.36.801-.8V.8c0-.44-.36-.8-.8-.8H6.8c-.44 0-.8.36-.8.8v6.4c0 .44.36.8.8.8h4v.398h-.28a.906.906 0 0 0-.918.922v.282h-4.84V9.32a.909.909 0 0 0-.922-.922H3.2v-2h1.6c.122 0 .24-.039.321-.16a.31.31 0 0 0 .078-.316l-.8-4A.385.385 0 0 0 4 1.602H1.602c-.204 0-.364.117-.403.32l-.8 4c0 .117 0 .238.081.316.079.121.2.16.32.16h1.598v2h-.68a.906.906 0 0 0-.917.922v.282H.398C.16 9.602 0 9.762 0 10v1.602c0 .238.16.398.398.398h.403v11.602c0 .238.16.398.398.398h7.2c.242 0 .402-.16.402-.398V12h6.398v11.602c0 .238.16.398.403.398H22.8c.238 0 .398-.16.398-.398V12h.403c.238 0 .398-.16.398-.398V10c0-.238-.16-.398-.398-.398zM1.922 2.398H3.68l.64 3.204H1.281zM20.078 8h1.442l-.282 1.602h-.918zM17.2.8v4.802H6.801V.8zM6.801 6.399h10.398V7.2H6.801zM11.6 8h.797v.398h-.796zm-1.16 1.32c0-.082.04-.12.118-.12h2.921c.079 0 .122.038.122.12v.282h-3.16zm-8.84 0c0-.082.04-.12.118-.12h2.16c.082 0 .121.038.121.12v.282H1.602zM8 23.2H1.602V12H8zm14.398 0H16V12h6.398zm.801-12H.801v-.802h22.398zm0 0"/>
    <path d="M7.602 2.8c.117 0 .199-.038.277-.12l.8-.801a.385.385 0 0 0 0-.559.385.385 0 0 0-.558 0l-.8.801a.385.385 0 0 0 0 .559c.077.082.16.12.28.12zm0 0M7.719 4.281c.082.078.16.117.281.117.121 0 .2-.039.281-.117l2-2a.39.39 0 0 0 0-.562.39.39 0 0 0-.562 0l-2 2a.39.39 0 0 0 0 .562zm0 0M2.398 16.398H7.2c.242 0 .403-.16.403-.398v-3.2c0-.241-.16-.402-.403-.402H2.4c-.239 0-.399.16-.399.403V16c0 .238.16.398.398.398zm.403-3.199h4v2.403h-4zm0 0M2.398 22.398H7.2c.242 0 .403-.16.403-.398v-4.398c0-.243-.16-.403-.403-.403H2.4c-.239 0-.399.16-.399.403V22c0 .238.16.398.398.398zM2.801 18h4v3.602h-4zm0 0"/>
    <path d="M5.2 14h-.802c-.238 0-.398.16-.398.398 0 .243.16.403.398.403H5.2c.242 0 .403-.16.403-.403 0-.238-.16-.398-.403-.398zm0 0M5.2 18.8h-.802c-.238 0-.398.16-.398.4 0 .241.16.402.398.402H5.2c.242 0 .403-.16.403-.403 0-.238-.16-.398-.403-.398zm0 0M16.8 16.398h4.802c.238 0 .398-.16.398-.398v-3.2c0-.241-.16-.402-.398-.402H16.8c-.242 0-.403.16-.403.403V16c0 .238.16.398.403.398zm.4-3.199h4v2.403h-4zm0 0M16.8 22.398h4.802c.238 0 .398-.16.398-.398v-4.398c0-.243-.16-.403-.398-.403H16.8c-.242 0-.403.16-.403.403V22c0 .238.16.398.403.398zM17.2 18h4v3.602h-4zm0 0"/>
    <path d="M19.602 14H18.8c-.242 0-.403.16-.403.398 0 .243.16.403.403.403h.8c.239 0 .399-.16.399-.403 0-.238-.16-.398-.398-.398zm0 0M19.602 18.8H18.8c-.242 0-.403.16-.403.4 0 .241.16.402.403.402h.8c.239 0 .399-.16.399-.403 0-.238-.16-.398-.398-.398zm0 0"/>
</svg>
